X:1
T:Caught Up
T:Thoro Harris, circa 1917
T:Caught Up
T:Public Domain
T:Public Domain
T:Public Domain
C:Thoro Harris, circa 1917
Z:Public Domain
%%score ( 1 2 ) ( 3 4 )
L:1/8
M:4/4
K:F
V:1 treble 
V:2 treble 
V:3 bass 
V:4 bass 
V:1
 [CF][CG] | [FA][Fc] [Fc]>[Fd] [Fc][CA][CG][CF] | [EG][EA][DF]D C2 [CF][CG] | %3
w: 1.~Though we|may not know the mo- ment when our|bless- èd Lord shall come To re-|
w: 2.~There are|times when we are called to wade through|wa- ters deep and wide, And the|
w: 3.~Then e-|ter- nal years in glo- ry with our|Sav- ior we will spend; O we|
 [FA] [Fc]2 [Fc] [Fd][Fc][FA][Fc] | [EG]6 [CF][CG] | [FA][Fc] [Fc]>[Fd] [Fc][FA][EG][DF] | %6
w: to man- sions “o- ver there,” Yet|we know ’twill|not be long be- fore He takes His|
w: of Christ Him- self to share; We|re- mem- ber|He has prom- ised to be ev- er|
w: that morn- ing bright and fair! When|the days of|our so- journ- ing and our pil- grim-|
 [DG][^CA][DF][B,D] [A,=C]2 F[FG] | [FA] [Fd]2 [Fc] [EG][EB][EA][EG] | F6 ||"^Refrain" [FA][GB] | %10
w: loved ones home, And we’re caught up|meet Him in the air. We’ll be|caught|to meet|
w: at our side, Till we’re caught up|meet Him in the air. * *|||
w: age shall end, We’ll be caught up|meet Him in the air. * *|||
 [Ac] [Ac]2 [Ac] [Bd][Ac][Ac][FA] | (EEGF E2) [EG][FA] | [GB] [GB]2 [GB] [Ac][GB][GB][EG] | %13
w: Him in the air, We’ll be caught|up * * * * His bless-|ness to share; Ver- y soon He|
w: |||
w: |||
 [FA]6 AB | [_Ec] [Ed]2 [Ec] [EA]3 [EF] x | [DG][DF][DF]D [GB]4 | [FA] [FA]2 C [EG][E^F][EG][EA] | %17
w: will come To|take His peo- ple home|Caught up to meet Him|the air. * * * * *|
w: ||||
w: ||||
 F6 |] %18
w: |
w: |
w: |
V:2
 x2 | x8 | x3 D C2 x2 | x8 | x8 | x8 | x6 F x | x8 | F6 || x2 | x8 | B6 x2 | x8 | x8 | x9 | %15
w: ||ceive us||||to||up|||ed-||||
w: ||sor- rows||||to|||||||||
w: ||long for||||to|||||||||
 x3 D x4 | x3 C x4 | F6 |] %18
w: in|||
w: |||
w: |||
V:3
 [F,A,][F,B,] | [F,C][F,A,] [F,A,]>[F,B,] [F,A,]F,[F,G,][F,A,] | %2
w: ~ ~|~ ~ ~ ~ ~ ~ ~ ~|
 [C,B,][^C,A,][D,A,]B,, [F,,A,]2 [F,A,][F,B,] | [F,C] [F,A,]2 [F,A,] [F,B,][F,A,][F,C][A,,C] | %4
w: ~ ~ ~ ~ ~ ~ ~|~ ~ ~ ~ ~ ~ ~|
 [C,B,]6 [F,A,][F,B,] | [F,C][F,A,] [F,A,]>[F,B,] [F,A,][F,C][C,B,][D,A,] | %6
w: ~ ~ ~|~ ~ ~ ~ ~ ~ ~ ~|
 [B,,G,][A,,G,][B,,F,][D,F,] F,E,[D,A,][D,=B,] | [C,C] [C,A,]2 [C,A,] [C,B,][C,G,][C,C][C,B,] | %8
w: ~ ~ ~ ~ ~ ~ ~ ~|~ ~ ~ ~ ~ ~ ~|
 [F,A,]6 || z2 | [F,C] [F,F]2 [F,F] [F,F][F,F][F,C][F,C] | [G,C][C,C][E,C][G,C] C2 z2 | %12
w: ~||~ ~ ~ ~ ~ ~ the|am- bient air ~ ~|
 [C,C] [C,E]2 [C,D] [C,C][C,C][C,C][C,B,] | [F,A,]F,[F,A,][F,D] [F,C]2 F,G, | %14
w: ~ ~ ~ for- ev- er- more|to share; ~ ~ ~ ~ ~|
 [F,A,] [F,A,]2 [F,A,] C2 z F, x | [B,,B,][B,,B,][B,,B,][B,,B,] B,DED | %16
w: ~ ~ ~ ~ ~|* and we’ll be * * * *|
 [C,C] [C,C]2 [C,A,] [C,B,][C,A,][C,B,][C,C] | [F,,A,]6 |] %18
w: ||
V:4
 x2 | x5 F, x2 | x8 | x8 | x8 | x8 | x4 A,2 x2 | x8 | x6 || x2 | x8 | x4 C2 x2 | x8 | x F, x6 | %14
w: |~|||||~|||||~||~|
 x4 F,3 A,2 | x4 G,,4 | x8 | x6 |] %18
w: ~ ~||||

